X: 18
T: Morrison's
Z: UPipes & harp
S: https://thesession.org/tunes/71#setting50047
R: jig
M: 6/8
L: 1/8
K: Edor
|:E3 B3|EBE AFD|E3 B3|dcB AFD|
E3 BEB|EBE AFD|G3 FGA|dAG FED:|
Bee fee|aee fed|Bee fee|a2g fed|
Bee fee|aee fed|gfe d2A|BAG FED|
Bee fee|aee fed|Bee fee|faf def|
g3 gfe|def g2d|edc d2A|BAG FED|

